packages/tokens/icons/deadEnd/size32Px.svg

<svg viewBox="0 0 32 32" fill="none" xmlns="http://www.w3.org/2000/svg" width="1em" height="1em"><path d="M14.7886 2.76777C15.3744 2.18198 16.3241 2.18198 16.9099 2.76777L28.9307 14.7886C29.5165 15.3744 29.5165 16.3241 28.9307 16.9099L16.9099 28.9307C16.3241 29.5165 15.3744 29.5165 14.7886 28.9307L2.76777 16.9099C2.18198 16.3241 2.18198 15.3744 2.76777 14.7886L14.7886 2.76777Z" stroke="currentColor"/><path d="M12.171 14.275C12.171 13.125 11.366 12.55 10.281 12.55H9.111V16H10.281C11.371 16 12.171 15.43 12.171 14.275ZM11.351 14.275C11.351 14.915 10.966 15.315 10.326 15.315H9.916V13.22H10.326C10.981 13.22 11.351 13.625 11.351 14.275ZM15.3066 16V15.345H13.8316V14.545H15.1816V13.9H13.8316V13.195H15.2616V12.55H13.0266V16H15.3066ZM19.3099 16L18.0099 12.545H17.1699L15.8699 16H16.7099L16.9549 15.305H18.1849L18.4299 16H19.3099ZM17.9999 14.675H17.1399L17.5699 13.435L17.9999 14.675ZM23.0634 14.275C23.0634 13.125 22.2584 12.55 21.1734 12.55H20.0034V16H21.1734C22.2634 16 23.0634 15.43 23.0634 14.275ZM22.2434 14.275C22.2434 14.915 21.8584 15.315 21.2184 15.315H20.8084V13.22H21.2184C21.8734 13.22 22.2434 13.625 22.2434 14.275ZM13.173 21V20.345H11.698V19.545H13.048V18.9H11.698V18.195H13.128V17.55H10.893V21H13.173ZM17.1913 21V17.55H16.4013V19.115C16.4013 19.48 16.4163 19.87 16.4163 19.87L14.9363 17.55H14.0713V21H14.8613V19.44C14.8613 19.075 14.8463 18.66 14.8463 18.66L16.3613 21H17.1913ZM21.2813 19.275C21.2813 18.125 20.4763 17.55 19.3913 17.55H18.2213V21H19.3913C20.4813 21 21.2813 20.43 21.2813 19.275ZM20.4613 19.275C20.4613 19.915 20.0763 20.315 19.4363 20.315H19.0263V18.22H19.4363C20.0913 18.22 20.4613 18.625 20.4613 19.275Z" fill="currentColor"/></svg>

<svg xmlns="http://www.w3.org/2000/svg" fill="none" viewBox="0 0 32 32" width="1em" height="1em"><path stroke="currentColor" d="M14.789 2.768a1.5 1.5 0 0 1 2.12 0l12.022 12.02a1.5 1.5 0 0 1 0 2.122L16.91 28.93a1.5 1.5 0 0 1-2.121 0L2.768 16.91a1.5 1.5 0 0 1 0-2.121l12.02-12.021Z"/><path fill="currentColor" d="M12.171 14.275c0-1.15-.805-1.725-1.89-1.725h-1.17V16h1.17c1.09 0 1.89-.57 1.89-1.725Zm-.82 0c0 .64-.385 1.04-1.025 1.04h-.41V13.22h.41c.655 0 1.025.405 1.025 1.055ZM15.307 16v-.655h-1.475v-.8h1.35V13.9h-1.35v-.705h1.43v-.645h-2.235V16h2.28Zm4.003 0-1.3-3.455h-.84L15.87 16h.84l.245-.695h1.23l.245.695h.88ZM18 14.675h-.86l.43-1.24.43 1.24Zm5.063-.4c0-1.15-.805-1.725-1.89-1.725h-1.17V16h1.17c1.09 0 1.89-.57 1.89-1.725Zm-.82 0c0 .64-.385 1.04-1.025 1.04h-.41V13.22h.41c.655 0 1.025.405 1.025 1.055ZM13.173 21v-.655h-1.475v-.8h1.35V18.9h-1.35v-.705h1.43v-.645h-2.235V21h2.28Zm4.018 0v-3.45h-.79v1.565c0 .365.015.755.015.755l-1.48-2.32h-.865V21h.79v-1.56c0-.365-.015-.78-.015-.78L16.361 21h.83Zm4.09-1.725c0-1.15-.805-1.725-1.89-1.725h-1.17V21h1.17c1.09 0 1.89-.57 1.89-1.725Zm-.82 0c0 .64-.385 1.04-1.025 1.04h-.41V18.22h.41c.655 0 1.025.405 1.025 1.055Z"/></svg>
